polaris-icons/icons/new-icons/FraudProtectMajor.svg

<svg width="20" height="20" viewBox="0 0 20 20" fill="none" xmlns="http://www.w3.org/2000/svg">
<path d="M11.0932 2.91473C10.4541 2.40342 9.54592 2.40342 8.90679 2.91473L8.58988 3.16826C7.60347 3.95738 6.52283 4.62089 5.37281 5.14354L4.52596 5.5284C3.90734 5.80954 3.4829 6.4396 3.51511 7.15602C3.68233 10.8746 5.20811 13.3847 6.70701 14.9614C7.45272 15.7458 8.18868 16.2966 8.74193 16.6531C9.01891 16.8316 9.25126 16.9622 9.4178 17.0497C9.50112 17.0934 9.56811 17.1265 9.61614 17.1494C9.64016 17.1608 9.65945 17.1698 9.67369 17.1762L9.69123 17.1841L9.69709 17.1867L9.69927 17.1877C9.69967 17.1879 9.70096 17.1884 10 16.5006L9.70096 17.1884C10.0808 17.3536 10.5226 17.1795 10.6878 16.7997C10.8529 16.42 10.6791 15.9785 10.2997 15.8131L10.2952 15.8111C10.2889 15.8082 10.2777 15.803 10.262 15.7955C10.2305 15.7805 10.1807 15.756 10.1152 15.7216C9.98411 15.6528 9.79056 15.5444 9.55449 15.3923C9.08165 15.0876 8.4429 14.6103 7.79417 13.9279C6.50418 12.5709 5.16214 10.3919 5.0136 7.08863C5.01058 7.0215 5.05113 6.93736 5.14657 6.89399L5.99342 6.50913C7.25656 5.93508 8.44349 5.20631 9.52692 4.33956L9.84383 4.08603C9.93513 4.01299 10.0649 4.01299 10.1562 4.08603L10.5102 4.36924C11.568 5.2155 12.7246 5.93032 13.9546 6.49801L14.8548 6.91347C14.9502 6.95751 14.9895 7.04075 14.9865 7.10666C14.9585 7.73166 14.8876 8.31493 14.7828 8.85872C14.7044 9.26545 14.9706 9.6587 15.3773 9.73708C15.7841 9.81545 16.1773 9.54926 16.2557 9.14253C16.3744 8.52627 16.4538 7.8706 16.485 7.17392C16.5171 6.46051 16.0962 5.8344 15.4834 5.55153L14.5832 5.13607C13.4633 4.61922 12.4103 3.96842 11.4472 3.19794L11.0932 2.91473Z" fill="#4A4A4A"/>
<path d="M15.5 12.2505C15.5 13.0789 14.8284 13.7505 14 13.7505C13.1716 13.7505 12.5 13.0789 12.5 12.2505C12.5 11.4221 13.1716 10.7505 14 10.7505C14.8284 10.7505 15.5 11.4221 15.5 12.2505Z" fill="#4A4A4A"/>
<path d="M14.0175 14.7505H13.9824C12.9511 14.7505 12.0052 15.3239 11.5281 16.2383C11.2877 16.699 11.622 17.2505 12.1417 17.2505H15.8583C16.378 17.2505 16.7123 16.699 16.4719 16.2383C15.9948 15.3239 15.0489 14.7505 14.0175 14.7505Z" fill="#4A4A4A"/>
</svg>

<svg viewBox="0 0 20 20" xmlns="http://www.w3.org/2000/svg"><path d="M11.093 2.915a1.75 1.75 0 0 0-2.186 0l-.317.253a15.25 15.25 0 0 1-3.217 1.976l-.847.384a1.71 1.71 0 0 0-1.01 1.628c.166 3.719 1.692 6.229 3.191 7.805a11.209 11.209 0 0 0 2.035 1.692 8.9 8.9 0 0 0 .874.496l.058.027.017.008.006.003h.002s.002.001.301-.686l-.299.687a.75.75 0 0 0 .599-1.375l-.005-.002a2.582 2.582 0 0 1-.18-.09 7.378 7.378 0 0 1-.56-.329 9.71 9.71 0 0 1-1.76-1.464c-1.29-1.357-2.633-3.536-2.781-6.84-.003-.067.037-.15.133-.194l.846-.385a16.75 16.75 0 0 0 3.534-2.17l.317-.253a.25.25 0 0 1 .312 0l.354.283a16.75 16.75 0 0 0 3.445 2.129l.9.415c.095.045.134.128.131.194a12.111 12.111 0 0 1-.203 1.752.75.75 0 1 0 1.473.284c.118-.617.198-1.272.229-1.97a1.709 1.709 0 0 0-1.002-1.621l-.9-.416a15.249 15.249 0 0 1-3.136-1.938l-.354-.283Z" fill="#5C5F62"/><path d="M15.5 12.25a1.5 1.5 0 1 1-3 0 1.5 1.5 0 0 1 3 0Z" fill="#5C5F62"/><path d="M14.018 14.75h-.036a2.768 2.768 0 0 0-2.454 1.488.692.692 0 0 0 .614 1.012h3.716c.52 0 .854-.551.614-1.012a2.768 2.768 0 0 0-2.455-1.487Z" fill="#5C5F62"/></svg>
